resources/monotone-checkbox-checked.svg

<svg xmlns="http://www.w3.org/2000/svg" width="12" height="12" viewBox="0 0 24 24"><path fill="#f4f4f7" fill-opacity="context-fill-opacity" d="M10.041 17l-4.5-4.319 1.395-1.435 3.08 2.937 7.021-7.183 1.422 1.409-8.418 8.591zm-5.041-15c-1.654 0-3 1.346-3 3v14c0 1.654 1.346 3 3 3h14c1.654 0 3-1.346 3-3v-14c0-1.654-1.346-3-3-3h-14zm19 3v14c0 2.761-2.238 5-5 5h-14c-2.762 0-5-2.239-5-5v-14c0-2.761 2.238-5 5-5h14c2.762 0 5 2.239 5 5z"/></svg>

<svg width="12" height="12" viewBox="0 0 24 24">
  <path fill="#f4f4f7" fill-opacity="context-fill-opacity" d="m10.041 17-4.5-4.319 1.395-1.435 3.08 2.937L17.037 7l1.422 1.409L10.041 17zM5 2C3.346 2 2 3.346 2 5v14c0 1.654 1.346 3 3 3h14c1.654 0 3-1.346 3-3V5c0-1.654-1.346-3-3-3H5zm19 3v14a5 5 0 0 1-5 5H5a5 5 0 0 1-5-5V5a5 5 0 0 1 5-5h14a5 5 0 0 1 5 5z"/>
</svg>
